X: 1
T:Swallow Tail Jig, The
M:6/8
R: Jig
r:32
K:Edor
F \
|: "Em"GEE BEE | GEE BAG | "D"FDD ADD | dcd AGF |
   "Em"GEE BEE | GEE B2c | "D"dcd AGF |\
[1 "Em"GEE E2F :|[2 "Em"GEE E3 ||
|: "Em"Bcd e2f | e2f edB | Bcd e2f | edB "D"d3 |
   "Em"Bcd e2f | e2f edB | "D"dcd AGF |\
  [1 "Em"GEE E3 :|[2 "Em"GEE E2F |]
N:Fiddlers Fakebook pg 270 - abc by Peter Ostapenko 3/27/2007
N:E Dorian
Z: Mackin got it of folk tune finder 
